X: 130030
T: FRENCH MARCH
R: March.
%R: march
B: James Kerr "Merry Melodies" v.1 p.30 s.0 #30
Z: 2016 John Chambers <jc:trillian.mit.edu>
M: C
L: 1/8
K: G
uD>uG |\
vB2 uB>uB vB2 uc>A | e2 d>d d2 (3(Bcd) |\
cz (3(ABc) Bz (3(GAB) | (3(ABA) (3(GFE) D>E (3(FGA) |\
B2 B>B B2 c>A | e2 d>d d2 (3(bag) |\
f2 (3(agf) e2 (3(gfe) | d2 d>d d2 :|
|: d>u^d |\
e2 e>e e.fg>a | b2 b>b b>a g>f |\
f>ee>e e>fg>a | b2 b>b b2 d>d |\
d>^cc>c a>=cc>c | c>BB>B e>AB>c |\
d>GA>B cDE>F | G2 G>G G2 :|

% %newpage
%%sep 1 1 500
%%sep 1 1 500
%%center SCOTCH JIGS FOR QUADRILLES AND COUNTRY DANCES

%%sep 1 1 500
%%sep 1 1 500

